;Generated with ArcOne Post-Processing Script
;top metadata start
;Git Commit Hash (Version): 92a6d907718a7b181d06641a901c8a5fb77e4116
;START_OF_HEADER
;HEADER_VERSION:0.1
;FLAVOR:Griffin
;GENERATOR.NAME:Cura_SteamEngine
;GENERATOR.VERSION:5.3.1
;GENERATOR.BUILD_DATE:2023-04-19
;TARGET_MACHINE.NAME:Ultimaker S5
;EXTRUDER_TRAIN.0.INITIAL_TEMPERATURE:200
;EXTRUDER_TRAIN.0.MATERIAL.VOLUME_USED:3547
;EXTRUDER_TRAIN.0.MATERIAL.GUID:506c9f0d-e3aa-4bd4-b2d2-23e2425b1aa9
;EXTRUDER_TRAIN.0.NOZZLE.DIAMETER:0.4
;EXTRUDER_TRAIN.0.NOZZLE.NAME:AA 0.4
;BUILD_PLATE.INITIAL_TEMPERATURE:60
;BUILD_VOLUME.TEMPERATURE:28
;PRINT.TIME:1753
;PRINT.GROUPS:1
;PRINT.SIZE.MIN.X:148.277
;PRINT.SIZE.MIN.Y:103.277
;PRINT.SIZE.MIN.Z:0.2
;PRINT.SIZE.MAX.X:181.722
;PRINT.SIZE.MAX.Y:136.722
;PRINT.SIZE.MAX.Z:20
;SLICE_UUID:4268d424-cd8a-4b47-9ef5-c5bd85a62978
;END_OF_HEADER

;Arc One Settings
;weld_gap = 8
;sleep_time = 30
;rotate_amount = 6
;overwrite_movement_rate = False
;movement_rate = 0
;use_temperature_sensor = True
;wait_for_temp = 275
;pause_after_layer = True
;return_home = True
;change_initial_Z = True
;change_G0toG1 = True
;Generated with Cura_SteamEngine 5.3.1 + Arc One
;top metadata end
;startup script start
T0
M82 ;absolute extrusion mode

G92 E0
M109 S200
G280 S1
G0 Z20.001
G1 F1000
;LAYER_COUNT:133
;startup script end

;gcode movements start
;LAYER:0
M106 S255
M204 S1000
M205 X20 Y20
G1 F600 Z10.0 ;Added in move_up_z.py

;Initial Z Offset Changed by change_initial_z.py
G1F9000 Z100 ;Changed in change_G0_to_G1.py

;Initial Z Offset Changed by change_initial_z.py
G1F9000 Z100 ;Changed in change_G0_to_G1.py

G1 F1000 X180.683 Y133.271 ;Removed Z in change_initial_z.py
;TYPE:SKIRT
G1 F600 Z8.0 ;Added in move_up_z.py
G4 P0 ;Added in weld_control.py
M42 P1 S1 ;Enable Welder, Added in weld_control.py
M291 P"Weld On L0 B1" ;Added in weld_control.py
G1 F1000 ;Removed extrusion in weld_control.py
G1 F1000 X179.159 Y135.099 ;Removed extrusion in weld_control.py
G1 X177.745 Y135.962 ;Removed extrusion in weld_control.py
G1 X175.73 Y136.722 ;Removed extrusion in weld_control.py
G1 X154.17 Y136.722 ;Removed extrusion in weld_control.py
G1 X151.701 Y135.675 ;Removed extrusion in weld_control.py
G1 X149.882 Y134.153 ;Removed extrusion in weld_control.py
G1 X149.035 Y132.739 ;Removed extrusion in weld_control.py
G1 X148.277 Y130.74 ;Removed extrusion in weld_control.py
G1 X148.277 Y109.17 ;Removed extrusion in weld_control.py
G1 X149.324 Y106.701 ;Removed extrusion in weld_control.py
G1 X150.846 Y104.882 ;Removed extrusion in weld_control.py
G1 X152.26 Y104.035 ;Removed extrusion in weld_control.py
G1 X154.259 Y103.277 ;Removed extrusion in weld_control.py
G1 X175.829 Y103.277 ;Removed extrusion in weld_control.py
G1 X178.298 Y104.324 ;Removed extrusion in weld_control.py
G1 X180.117 Y105.846 ;Removed extrusion in weld_control.py
G1 X180.964 Y107.26 ;Removed extrusion in weld_control.py
G1 X181.722 Y109.259 ;Removed extrusion in weld_control.py
G1 X181.722 Y130.846 ;Removed extrusion in weld_control.py
G1 X180.683 Y133.271 ;Removed extrusion in weld_control.py
M42 P1 S0 ;Disable Welder, Added in weld_control.py
G4 P0 ;Added in weld_control.py
M291 P"Weld Off L0 B1" ;Added in weld_control.py
G1F9000 X180.337 Y133.062 ;Changed in change_G0_to_G1.py
G4 P0 ;Added in weld_control.py
M42 P1 S1 ;Enable Welder, Added in weld_control.py
M291 P"Weld On L0 B2" ;Added in weld_control.py
G1 F1000 X178.894 Y134.793 ;Removed extrusion in weld_control.py
G1 X177.57 Y135.601 ;Removed extrusion in weld_control.py
G1 X175.658 Y136.322 ;Removed extrusion in weld_control.py
G1 X154.251 Y136.322 ;Removed extrusion in weld_control.py
G1 X151.914 Y135.331 ;Removed extrusion in weld_control.py
G1 X150.19 Y133.889 ;Removed extrusion in weld_control.py
G1 X149.396 Y132.564 ;Removed extrusion in weld_control.py
G1 X148.677 Y130.667 ;Removed extrusion in weld_control.py
G1 X148.677 Y109.251 ;Removed extrusion in weld_control.py
G1 X149.668 Y106.914 ;Removed extrusion in weld_control.py
G1 X151.11 Y105.19 ;Removed extrusion in weld_control.py
G1 X152.435 Y104.396 ;Removed extrusion in weld_control.py
G1 X154.332 Y103.677 ;Removed extrusion in weld_control.py
G1 X175.748 Y103.677 ;Removed extrusion in weld_control.py
G1 X178.085 Y104.668 ;Removed extrusion in weld_control.py
G1 X179.809 Y106.11 ;Removed extrusion in weld_control.py
G1 X180.603 Y107.435 ;Removed extrusion in weld_control.py
G1 X181.322 Y109.332 ;Removed extrusion in weld_control.py
G1 X181.322 Y130.763 ;Removed extrusion in weld_control.py
G1 X180.337 Y133.062 ;Removed extrusion in weld_control.py
M42 P1 S0 ;Disable Welder, Added in weld_control.py
G4 P0 ;Added in weld_control.py
M291 P"Weld Off L0 B2" ;Added in weld_control.py
G1F9000 X179.991 Y132.853 ;Changed in change_G0_to_G1.py
G4 P0 ;Added in weld_control.py
M42 P1 S1 ;Enable Welder, Added in weld_control.py
M291 P"Weld On L0 B3" ;Added in weld_control.py
G1 F1000 X178.629 Y134.487 ;Removed extrusion in weld_control.py
G1 X177.395 Y135.24 ;Removed extrusion in weld_control.py
G1 X175.586 Y135.922 ;Removed extrusion in weld_control.py
G1 X154.332 Y135.922 ;Removed extrusion in weld_control.py
G1 X152.127 Y134.987 ;Removed extrusion in weld_control.py
G1 X150.498 Y133.625 ;Removed extrusion in weld_control.py
G1 X149.757 Y132.389 ;Removed extrusion in weld_control.py
G1 X149.077 Y130.594 ;Removed extrusion in weld_control.py
G1 X149.077 Y109.332 ;Removed extrusion in weld_control.py
G1 X150.012 Y107.127 ;Removed extrusion in weld_control.py
G1 X151.374 Y105.498 ;Removed extrusion in weld_control.py
G1 X152.61 Y104.757 ;Removed extrusion in weld_control.py
G1 X154.405 Y104.077 ;Removed extrusion in weld_control.py
G1 X175.667 Y104.077 ;Removed extrusion in weld_control.py
G1 X177.872 Y105.012 ;Removed extrusion in weld_control.py
G1 X179.501 Y106.374 ;Removed extrusion in weld_control.py
G1 X180.242 Y107.61 ;Removed extrusion in weld_control.py
G1 X180.922 Y109.405 ;Removed extrusion in weld_control.py
G1 X180.922 Y130.68 ;Removed extrusion in weld_control.py
G1 X179.991 Y132.853 ;Removed extrusion in weld_control.py
M42 P1 S0 ;Disable Welder, Added in weld_control.py
G4 P0 ;Added in weld_control.py
M291 P"Weld Off L0 B3" ;Added in weld_control.py
G1F9000 X179.645 Y132.644 ;Changed in change_G0_to_G1.py
G4 P0 ;Added in weld_control.py
M42 P1 S1 ;Enable Welder, Added in weld_control.py
M291 P"Weld On L0 B4" ;Added in weld_control.py
G1 F1000 X178.364 Y134.181 ;Removed extrusion in weld_control.py
G1 X177.22 Y134.879 ;Removed extrusion in weld_control.py
G1 X175.514 Y135.522 ;Removed extrusion in weld_control.py
G1 X154.413 Y135.522 ;Removed extrusion in weld_control.py
G1 X152.34 Y134.643 ;Removed extrusion in weld_control.py
G1 X150.806 Y133.361 ;Removed extrusion in weld_control.py
G1 X150.118 Y132.214 ;Removed extrusion in weld_control.py
G1 X149.477 Y130.521 ;Removed extrusion in weld_control.py
G1 X149.477 Y109.413 ;Removed extrusion in weld_control.py
G1 X150.356 Y107.34 ;Removed extrusion in weld_control.py
G1 X151.638 Y105.806 ;Removed extrusion in weld_control.py
G1 X152.785 Y105.118 ;Removed extrusion in weld_control.py
G1 X154.478 Y104.477 ;Removed extrusion in weld_control.py
G1 X175.586 Y104.477 ;Removed extrusion in weld_control.py
G1 X177.659 Y105.356 ;Removed extrusion in weld_control.py
G1 X179.193 Y106.638 ;Removed extrusion in weld_control.py
G1 X179.881 Y107.785 ;Removed extrusion in weld_control.py
G1 X180.522 Y109.478 ;Removed extrusion in weld_control.py
G1 X180.522 Y130.597 ;Removed extrusion in weld_control.py
G1 X179.645 Y132.644 ;Removed extrusion in weld_control.py
M42 P1 S0 ;Disable Welder, Added in weld_control.py
G4 P0 ;Added in weld_control.py
M291 P"Weld Off L0 B4" ;Added in weld_control.py
G1F9000 X179.299 Y132.435 ;Changed in change_G0_to_G1.py
G4 P0 ;Added in weld_control.py
M42 P1 S1 ;Enable Welder, Added in weld_control.py
M291 P"Weld On L0 B5" ;Added in weld_control.py
G1 F1000 X178.099 Y133.875 ;Removed extrusion in weld_control.py
G1 X177.045 Y134.518 ;Removed extrusion in weld_control.py
G1 X175.442 Y135.122 ;Removed extrusion in weld_control.py
G1 X154.494 Y135.122 ;Removed extrusion in weld_control.py
G1 X152.551 Y134.298 ;Removed extrusion in weld_control.py
G1 X151.115 Y133.098 ;Removed extrusion in weld_control.py
G1 X150.479 Y132.039 ;Removed extrusion in weld_control.py
G1 X149.877 Y130.448 ;Removed extrusion in weld_control.py
G1 X149.877 Y109.494 ;Removed extrusion in weld_control.py
G1 X150.701 Y107.551 ;Removed extrusion in weld_control.py
G1 X151.901 Y106.115 ;Removed extrusion in weld_control.py
G1 X152.96 Y105.479 ;Removed extrusion in weld_control.py
G1 X154.551 Y104.877 ;Removed extrusion in weld_control.py
G1 X175.505 Y104.877 ;Removed extrusion in weld_control.py
G1 X177.448 Y105.701 ;Removed extrusion in weld_control.py
G1 X178.884 Y106.901 ;Removed extrusion in weld_control.py
G1 X179.52 Y107.96 ;Removed extrusion in weld_control.py
G1 X180.122 Y109.551 ;Removed extrusion in weld_control.py
G1 X180.122 Y130.514 ;Removed extrusion in weld_control.py
G1 X179.299 Y132.435 ;Removed extrusion in weld_control.py
M42 P1 S0 ;Disable Welder, Added in weld_control.py
G4 P0 ;Added in weld_control.py
M291 P"Weld Off L0 B5" ;Added in weld_control.py
G1F9000 X178.953 Y132.226 ;Changed in change_G0_to_G1.py
G4 P0 ;Added in weld_control.py
M42 P1 S1 ;Enable Welder, Added in weld_control.py
M291 P"Weld On L0 B6" ;Added in weld_control.py
G1 F1000 X177.834 Y133.569 ;Removed extrusion in weld_control.py
G1 X176.87 Y134.157 ;Removed extrusion in weld_control.py
G1 X175.37 Y134.722 ;Removed extrusion in weld_control.py
G1 X154.575 Y134.722 ;Removed extrusion in weld_control.py
G1 X152.762 Y133.953 ;Removed extrusion in weld_control.py
G1 X151.424 Y132.835 ;Removed extrusion in weld_control.py
G1 X150.84 Y131.863 ;Removed extrusion in weld_control.py
G1 X150.277 Y130.375 ;Removed extrusion in weld_control.py
G1 X150.277 Y109.575 ;Removed extrusion in weld_control.py
G1 X151.046 Y107.762 ;Removed extrusion in weld_control.py
G1 X152.164 Y106.424 ;Removed extrusion in weld_control.py
G1 X153.136 Y105.84 ;Removed extrusion in weld_control.py
G1 X154.624 Y105.277 ;Removed extrusion in weld_control.py
G1 X175.424 Y105.277 ;Removed extrusion in weld_control.py
G1 X177.237 Y106.046 ;Removed extrusion in weld_control.py
G1 X178.575 Y107.164 ;Removed extrusion in weld_control.py
G1 X179.159 Y108.136 ;Removed extrusion in weld_control.py
G1 X179.722 Y109.624 ;Removed extrusion in weld_control.py
G1 X179.722 Y130.431 ;Removed extrusion in weld_control.py
G1 X178.953 Y132.226 ;Removed extrusion in weld_control.py
M42 P1 S0 ;Disable Welder, Added in weld_control.py
G4 P0 ;Added in weld_control.py
M291 P"Weld Off L0 B6" ;Added in weld_control.py
G1F9000 X178.608 Y132.016 ;Changed in change_G0_to_G1.py
G4 P0 ;Added in weld_control.py
M42 P1 S1 ;Enable Welder, Added in weld_control.py
M291 P"Weld On L0 B7" ;Added in weld_control.py
G1 F1000 X177.57 Y133.261 ;Removed extrusion in weld_control.py
G1 X176.691 Y133.797 ;Removed extrusion in weld_control.py
G1 X175.298 Y134.322 ;Removed extrusion in weld_control.py
G1 X154.656 Y134.322 ;Removed extrusion in weld_control.py
G1 X152.973 Y133.608 ;Removed extrusion in weld_control.py
G1 X151.733 Y132.572 ;Removed extrusion in weld_control.py
G1 X151.201 Y131.687 ;Removed extrusion in weld_control.py
G1 X150.677 Y130.302 ;Removed extrusion in weld_control.py
G1 X150.677 Y109.656 ;Removed extrusion in weld_control.py
G1 X151.391 Y107.973 ;Removed extrusion in weld_control.py
G1 X152.427 Y106.733 ;Removed extrusion in weld_control.py
G1 X153.312 Y106.201 ;Removed extrusion in weld_control.py
G1 X154.697 Y105.677 ;Removed extrusion in weld_control.py
G1 X175.343 Y105.677 ;Removed extrusion in weld_control.py
G1 X177.026 Y106.391 ;Removed extrusion in weld_control.py
G1 X178.266 Y107.427 ;Removed extrusion in weld_control.py
G1 X178.798 Y108.312 ;Removed extrusion in weld_control.py
G1 X179.322 Y109.697 ;Removed extrusion in weld_control.py
G1 X179.322 Y130.349 ;Removed extrusion in weld_control.py
G1 X178.608 Y132.016 ;Removed extrusion in weld_control.py
M42 P1 S0 ;Disable Welder, Added in weld_control.py
G4 P0 ;Added in weld_control.py
M291 P"Weld Off L0 B7" ;Added in weld_control.py
G1F9000 X178.263 Y131.806 ;Changed in change_G0_to_G1.py
G4 P0 ;Added in weld_control.py
M42 P1 S1 ;Enable Welder, Added in weld_control.py
M291 P"Weld On L0 B8" ;Added in weld_control.py
G1 F1000 X177.306 Y132.953 ;Removed extrusion in weld_control.py
G1 X176.512 Y133.437 ;Removed extrusion in weld_control.py
G1 X175.226 Y133.922 ;Removed extrusion in weld_control.py
G1 X154.737 Y133.922 ;Removed extrusion in weld_control.py
G1 X153.184 Y133.263 ;Removed extrusion in weld_control.py
G1 X152.042 Y132.309 ;Removed extrusion in weld_control.py
G1 X151.562 Y131.511 ;Removed extrusion in weld_control.py
G1 X151.077 Y130.229 ;Removed extrusion in weld_control.py
G1 X151.077 Y109.737 ;Removed extrusion in weld_control.py
G1 X151.736 Y108.184 ;Removed extrusion in weld_control.py
G1 X152.69 Y107.042 ;Removed extrusion in weld_control.py
G1 X153.488 Y106.562 ;Removed extrusion in weld_control.py
G1 X154.77 Y106.077 ;Removed extrusion in weld_control.py
G1 X175.262 Y106.077 ;Removed extrusion in weld_control.py
G1 X176.815 Y106.736 ;Removed extrusion in weld_control.py
G1 X177.957 Y107.69 ;Removed extrusion in weld_control.py
G1 X178.437 Y108.488 ;Removed extrusion in weld_control.py
G1 X178.922 Y109.77 ;Removed extrusion in weld_control.py
G1 X178.922 Y130.267 ;Removed extrusion in weld_control.py
G1 X178.263 Y131.806 ;Removed extrusion in weld_control.py
M42 P1 S0 ;Disable Welder, Added in weld_control.py
G4 P0 ;Added in weld_control.py
M291 P"Weld Off L0 B8" ;Added in weld_control.py
G1F9000 X177.918 Y131.596 ;Changed in change_G0_to_G1.py
G4 P0 ;Added in weld_control.py
M42 P1 S1 ;Enable Welder, Added in weld_control.py
M291 P"Weld On L0 B9" ;Added in weld_control.py
G1 F1000 X177.043 Y132.645 ;Removed extrusion in weld_control.py
G1 X176.333 Y133.077 ;Removed extrusion in weld_control.py
G1 X175.154 Y133.522 ;Removed extrusion in weld_control.py
G1 X154.818 Y133.522 ;Removed extrusion in weld_control.py
G1 X153.397 Y132.919 ;Removed extrusion in weld_control.py
G1 X152.35 Y132.044 ;Removed extrusion in weld_control.py
G1 X151.923 Y131.335 ;Removed extrusion in weld_control.py
G1 X151.477 Y130.156 ;Removed extrusion in weld_control.py
G1 X151.477 Y109.818 ;Removed extrusion in weld_control.py
G1 X152.08 Y108.397 ;Removed extrusion in weld_control.py
G1 X152.955 Y107.35 ;Removed extrusion in weld_control.py
G1 X153.664 Y106.923 ;Removed extrusion in weld_control.py
G1 X154.843 Y106.477 ;Removed extrusion in weld_control.py
G1 X175.181 Y106.477 ;Removed extrusion in weld_control.py
G1 X176.602 Y107.08 ;Removed extrusion in weld_control.py
G1 X177.649 Y107.955 ;Removed extrusion in weld_control.py
G1 X178.076 Y108.664 ;Removed extrusion in weld_control.py
G1 X178.522 Y109.843 ;Removed extrusion in weld_control.py
G1 X178.522 Y130.185 ;Removed extrusion in weld_control.py
G1 X177.918 Y131.596 ;Removed extrusion in weld_control.py
M42 P1 S0 ;Disable Welder, Added in weld_control.py
G4 P0 ;Added in weld_control.py
M291 P"Weld Off L0 B9" ;Added in weld_control.py
G1F9000 X177.573 Y131.386 ;Changed in change_G0_to_G1.py
G4 P0 ;Added in weld_control.py
M42 P1 S1 ;Enable Welder, Added in weld_control.py
M291 P"Weld On L0 B10" ;Added in weld_control.py
G1 F1000 X176.78 Y132.337 ;Removed extrusion in weld_control.py
G1 X176.154 Y132.717 ;Removed extrusion in weld_control.py
G1 X175.082 Y133.122 ;Removed extrusion in weld_control.py
G1 X154.899 Y133.122 ;Removed extrusion in weld_control.py
G1 X153.608 Y132.574 ;Removed extrusion in weld_control.py
G1 X152.66 Y131.782 ;Removed extrusion in weld_control.py
G1 X152.282 Y131.155 ;Removed extrusion in weld_control.py
G1 X151.877 Y130.084 ;Removed extrusion in weld_control.py
G1 X151.877 Y109.899 ;Removed extrusion in weld_control.py
